!!!SOCIAL_FUNCTION:	songs of the sun dance
!!!PDT:	1918

Specific Region: Dakotas, Minnesota, Montana, Nebraska
!!!REG: Dakotas and Montana
!!!LING_GROUP: Siouan
!!!LANG: Tone
!!!OTL@ENG: Song of Painting the Sacred Pole
!!!ONM: No. 13
**kern
*Imale
*clefF4
*k[f#c#g#]
*M2/4
*MM160
4c#
=1
4c#
4c#
=2
[2c#
=3
2c#_
=4
4.c#]
8c#
=5
2B
=6
4A
4A
=7
[2A
=8
2A_
=9
2A]
=10||
*M3/4
4F#
4F#
4B
=11||
*M2/4
[2B
=12
2B_
=13
4.B]
8B
=14
2A
=15
4F#
4F#
=16
[2F#
=17
2F#_
=18
2F#]
=19
4F#
4F#
=20
4B
4B
=21
4B
4B
=22
4B
4c#
=23
2B
=24
2A
=25
4F#
4A
=26
4A
4A
=27
[2A
=28
2A_
=29
4.A]
8A
=30
2A
=31
4F#
4F#
=32
[2F#
=33
2F#_
=34
2F#]
=35||
*M3/4
4F#
4C#
4C#
=36||
*M2/4
[2C#
=37
2C#_
=38
4.C#]
8C#
=39
2BB
=40
4AA
4AA
=41
[2AA
=42
2AA_
=43
2AA]
=44
4BB
4BB
=45
4BB
4BB
=46
4BB
4BB
=47
4BB
4C#
=48
2BB
=49
2AA
=50
4FF#
4AA
=51
4AA
4AA
=52
[2AA
=53
2AA_
=54
4.AA]
8AA
=55
2AA
=56
4FF#
4FF#
=57
[2FF#
=58
2FF#]
==
*-
!!!CNT: Native American -- Sioux
!!!MRD: 1911/07//-1914///
!!!OCL: Frances Densmore
!!!YOR1: Teton Sioux Music, Bulletin 61,
!!!YOR2: Bureau of American Ethnology, Smithsonian Institution
!!!PPR: Government Printing Office
!!!PPP: Washington, D.C.
!!!PDT: 1918///
!!!ENC: Craig Stuart Sapp
!!!END: 2002/03/25/
!!!EEV: 2002/03/31/
!!!AGN: Ceremonial Song/Song of the Sun Dance
!!!MPN@@SIO: Shiya'ka
!!!MPN@ENG: Teal Duck
!!!TXO: Teton Sioux
!!!MLC: Standing Rock Reservation, South Dakota, United States of America
!!!ARL: 45.9/-100.7#
!!!catalog: Catalogue No. 452
!!!PPG: 117
!!!EFL: 13/245
!!!VTS: 2681212650
